static/img/icons/download.svg

<svg xmlns="http://www.w3.org/2000/svg" viewBox="0 0 24 24" xml:space="preserve">
	<path
		d="M11.293,17.707l-7-7l1.414-1.414L11,14.586V1h2v13.586l5.293-5.293l1.414,1.414l-7,7C12.512,17.902,12.256,18,12,18
        S11.488,17.902,11.293,17.707z M19,18v3H5v-3H3v4c0,0.553,0.448,1,1,1h16c0.553,0,1-0.447,1-1v-4H19z"
	/>
</svg>

<svg viewBox="0 0 24 24" fill="none" xmlns="http://www.w3.org/2000/svg">
	<path
		d="M11.293 17.707L4.293 10.707L5.707 9.293L11 14.586V1H13V14.586L18.293 9.293L19.707 10.707L12.707 17.707C12.512 17.902 12.256 18 12 18C11.744 18 11.488 17.902 11.293 17.707ZM19 18V21H5V18H3V22C3 22.553 3.447 23 4 23H20C20.553 23 21 22.553 21 22V18H19Z"
		fill="currentColor"
	/>
</svg>
